X: 2058
T: Ass In The Graveyard, The
R: waltz
M: 3/4
K: Dmajor
A2|:A2 dc de|d3e fd|ed ce dB|A4 ef|
g2 ef ge|f2 de fd|1 ed ce dB|c4 B2:|2 ed cd ec|d3 A fg||
|:ag fa ge|f4 (3efe|d2 c2 B2|A4 ef|
g2 ef ge|f2 de fd|1 ed ce dB|c4 A2:|2 ed cd ec|d4||

